projects/oblique/icons/Unlock.svg

<?xml version="1.0" encoding="UTF-8"?><svg id="a" xmlns="http://www.w3.org/2000/svg" viewBox="0 0 24 24"><path d="M6.51047,8.8536v-.64258c0-3.01074,2.44922-5.46094,5.45996-5.46094,1.75,0,3.40625.84863,4.43164,2.26953l1.2168-.87695c-1.30664-1.81152-3.41797-2.89258-5.64844-2.89258-3.83789,0-6.95996,3.12305-6.95996,6.96094v.64258h-1.76074v13.89648h17.5v-13.89648H6.51047ZM19.24973,21.25008H4.74973v-10.89648h14.5v10.89648ZM11.99973,18.97274c1.74902,0,3.17185-1.42285,3.17185-3.1709s-1.42283-3.1709-3.17185-3.1709c-1.74805,0-3.1709,1.42285-3.1709,3.1709s1.42285,3.1709,3.1709,3.1709ZM11.99973,14.13094c.92185,0,1.67185.75,1.67185,1.6709s-.75,1.6709-1.67185,1.6709c-.9209,0-1.6709-.75-1.6709-1.6709s.75-1.6709,1.6709-1.6709Z"/></svg>

<svg xmlns="http://www.w3.org/2000/svg" viewBox="0 0 24 24"><title>Unlock</title><path d="M6.51047,8.8536V8.211a5.46049,5.46049,0,0,1,9.8916-3.19141l1.2168-.87695A6.96039,6.96039,0,0,0,5.01047,8.211V8.8536H3.24973V22.75008h17.5V8.8536ZM19.24973,21.25008h-14.5V10.3536h14.5Z" fill="#171717"/><path d="M11.99973,18.97274a3.1709,3.1709,0,1,0-3.1709-3.1709A3.17518,3.17518,0,0,0,11.99973,18.97274Zm0-4.8418a1.6709,1.6709,0,1,1-1.6709,1.6709A1.67356,1.67356,0,0,1,11.99973,14.13094Z" fill="#171717"/></svg>
